!!!OTL: Jesus im Garten
!!!ARE: Europa, Mitteleuropa, Deutschland
!!!SCT: A0542B
!!!YEM: Copyright 1995, estate of Helmut Schaffrath.
**kern
*ICvox
*Ivox
*M4/2
*k[b-]
*F:
{2cc
=1
2cc
2dd
2cc
2b-
=2
2a
2g
1f
=3
2r}
{2f
2a
2b-
=4
2cc
2g
2a
2b-
=5
1cc
2r}
{2a
=6
2b-
2cc
2dd
2cc
=7
2b-
2a
1b-
=8
2r}
{2a
2g
2a
=9
2b-
2cc
2cc
2bn
=10
1.cc}
==
!!!AGN: Romanze, Ballade, Lied, religioeses Lied
!! Speiersches Gsgb. 1617 fol 33b.
!!!ONB: ESAC (Essen Associative Code) Database: ALTDEU
!!!AMT: simple quadruple
!!!AIN: vox
!!!EED: Helmut Schaffrath
!!!EEV: 1.0
*-
